korla/apps/scalable/krusader_user.svg

<!DOCTYPE svg  PUBLIC '-//W3C//DTD SVG 1.1//EN'  'http://www.w3.org/Graphics/SVG/1.1/DTD/svg11.dtd'>
<svg style="clip-rule:evenodd;fill-rule:evenodd;stroke-linejoin:round;stroke-miterlimit:1.41421" version="1.1" viewBox="0 0 48 48" xmlns="http://www.w3.org/2000/svg">
 <path d="m17.113 13.208c-0.121-4e-3 -0.267 2e-3 -0.457 2e-3h-12.647c-0.45 0-2.512 2.36-2.512 2.813v1.893c-1e-3 0.019-5e-3 0.037-5e-3 0.056v23.206c0 0.868 0.699 1.568 1.567 1.568h42.087c0.868 0 1.566-0.7 1.566-1.568v-21.56c0-0.868-2.318-3.214-3.186-3.214h-23.51c-0.015-0.02-0.025-0.031-0.041-0.052-0.58-0.781-1.456-1.79-2.027-2.552-0.343-0.5-0.471-0.583-0.834-0.592h-1e-3z" style="fill-opacity:.666667;fill-rule:nonzero"/>
 <path d="m13.127 5.748h-8.333c-1.613 0-3.297 0.809-3.297 2.74v2.938c-1e-3 0.019-6e-3 0.037-6e-3 0.056v28.668c0 0.868 0.7 1.568 1.568 1.568h42.087c0.868 0 1.566-0.7 1.566-1.568v-27.1c0-1.913-1.351-3.136-3.082-3.136-5.037 0-18.107-0.051-20.91-0.051-1.328 0-2.472-1.598-2.472-1.598-1.071-1.072-2.049-2.543-4.4-2.519-0.573 0-2.166 2e-3 -2.721 2e-3z" style="fill-rule:nonzero;fill:url(#_Linear1)"/>
 <path d="m18.089 21.702c0-1.12 0.911-2.029 2.033-2.029 1.123 0 2.033 0.909 2.033 2.029 0 1.121-0.91 2.03-2.033 2.03-1.122 0-2.033-0.909-2.033-2.03zm7.948 0c0-1.12 0.911-2.029 2.034-2.029 1.122 0 2.033 0.909 2.033 2.029 0 1.121-0.911 2.03-2.033 2.03-1.123 0-2.034-0.909-2.034-2.03zm5.482 6.274c-1.261 2.908-4.212 4.787-7.519 4.787-3.378 0-6.346-1.888-7.563-4.811-0.208-0.501 0.029-1.075 0.531-1.283 0.124-0.051 0.252-0.075 0.377-0.075 0.386 0 0.752 0.227 0.909 0.605 0.911 2.188 3.166 3.601 5.746 3.601 2.522 0 4.764-1.414 5.712-3.603 0.216-0.498 0.795-0.727 1.293-0.511 0.5 0.215 0.729 0.792 0.514 1.29z" style="fill-opacity:.729412;fill-rule:nonzero;fill:white"/>
 <defs>
  <linearGradient id="_Linear1" x2="1" gradientTransform="matrix(2.07538e-15,-33.8935,33.8935,2.07538e-15,11.2267,38.4659)" gradientUnits="userSpaceOnUse">
   <stop style="stop-color:rgb(25,124,241)" offset="0"/>
   <stop style="stop-color:rgb(32,188,250)" offset="1"/>
  </linearGradient>
 </defs>
</svg>

<?xml version="1.0" encoding="UTF-8" standalone="no"?>
<!DOCTYPE svg PUBLIC "-//W3C//DTD SVG 1.1//EN" "http://www.w3.org/Graphics/SVG/1.1/DTD/svg11.dtd">
<svg width="100%" height="100%" viewBox="0 0 48 48" version="1.1" xmlns="http://www.w3.org/2000/svg" xmlns:xlink="http://www.w3.org/1999/xlink" xml:space="preserve" xmlns:serif="http://www.serif.com/" style="fill-rule:evenodd;clip-rule:evenodd;stroke-linejoin:round;stroke-miterlimit:1.41421;">
    <path id="path12" d="M17.113,13.208C16.992,13.204 16.846,13.21 16.656,13.21L4.009,13.21C3.559,13.21 1.497,15.57 1.497,16.023L1.497,17.916C1.496,17.935 1.492,17.953 1.492,17.972L1.492,41.178C1.492,42.046 2.191,42.746 3.059,42.746L45.146,42.746C46.014,42.746 46.712,42.046 46.712,41.178L46.712,19.618C46.712,18.75 44.394,16.404 43.526,16.404L20.016,16.404C20.001,16.384 19.991,16.373 19.975,16.352C19.395,15.571 18.519,14.562 17.948,13.8C17.605,13.3 17.477,13.217 17.114,13.208L17.113,13.208Z" style="fill-opacity:0.666667;fill-rule:nonzero;"/>
    <path id="path14" d="M13.127,5.748L4.794,5.748C3.181,5.748 1.497,6.557 1.497,8.488L1.497,11.426C1.496,11.445 1.491,11.463 1.491,11.482L1.491,40.15C1.491,41.018 2.191,41.718 3.059,41.718L45.146,41.718C46.014,41.718 46.712,41.018 46.712,40.15L46.712,13.05C46.712,11.137 45.361,9.914 43.63,9.914C38.593,9.914 25.523,9.863 22.72,9.863C21.392,9.863 20.248,8.265 20.248,8.265C19.177,7.193 18.199,5.722 15.848,5.746C15.275,5.746 13.682,5.748 13.127,5.748L13.127,5.748Z" style="fill:url(#_Linear1);fill-rule:nonzero;"/>
    <path id="path11" d="M18.089,21.702C18.089,20.582 19,19.673 20.122,19.673C21.245,19.673 22.155,20.582 22.155,21.702C22.155,22.823 21.245,23.732 20.122,23.732C19,23.732 18.089,22.823 18.089,21.702ZM26.037,21.702C26.037,20.582 26.948,19.673 28.071,19.673C29.193,19.673 30.104,20.582 30.104,21.702C30.104,22.823 29.193,23.732 28.071,23.732C26.948,23.732 26.037,22.823 26.037,21.702ZM31.519,27.976C30.258,30.884 27.307,32.763 24,32.763C20.622,32.763 17.654,30.875 16.437,27.952C16.229,27.451 16.466,26.877 16.968,26.669C17.092,26.618 17.22,26.594 17.345,26.594C17.731,26.594 18.097,26.821 18.254,27.199C19.165,29.387 21.42,30.8 24,30.8C26.522,30.8 28.764,29.386 29.712,27.197C29.928,26.699 30.507,26.47 31.005,26.686C31.505,26.901 31.734,27.478 31.519,27.976L31.519,27.976Z" style="fill:white;fill-opacity:0.729412;fill-rule:nonzero;"/>
    <defs>
        <linearGradient id="_Linear1" x1="0" y1="0" x2="1" y2="0" gradientUnits="userSpaceOnUse" gradientTransform="matrix(2.07538e-15,-33.8935,33.8935,2.07538e-15,11.2267,38.4659)"><stop offset="0" style="stop-color:rgb(25,124,241);stop-opacity:1"/><stop offset="1" style="stop-color:rgb(32,188,250);stop-opacity:1"/></linearGradient>
    </defs>
</svg>
